dist/flags/m/772.svg

<svg width="20" height="15" viewBox="0 0 20 15" fill="none" xmlns="http://www.w3.org/2000/svg">
<mask id="mask0" mask-type="alpha" maskUnits="userSpaceOnUse" x="0" y="0" width="20" height="15">
<rect width="20" height="15" fill="white"/>
</mask>
<g mask="url(#mask0)">
<path fill-rule="evenodd" clip-rule="evenodd" d="M0 0V15H20V0H0Z" fill="#2E42A5"/>
<mask id="mask1" mask-type="alpha" maskUnits="userSpaceOnUse" x="0" y="0" width="20" height="15">
<path fill-rule="evenodd" clip-rule="evenodd" d="M0 0V15H20V0H0Z" fill="white"/>
</mask>
<g mask="url(#mask1)">
<path fill-rule="evenodd" clip-rule="evenodd" d="M2.05905 6.28962L1.50558 6.6321L1.72045 6.05716L1.25 5.6219H1.82062L2.05905 5L2.241 5.6219H2.8125L2.40063 6.05716L2.60228 6.6321L2.05905 6.28962Z" fill="#F7FCFF"/>
<path fill-rule="evenodd" clip-rule="evenodd" d="M4.55905 3.78962L4.00558 4.1321L4.22045 3.55716L3.75 3.1219H4.32062L4.55905 2.5L4.741 3.1219H5.3125L4.90063 3.55716L5.10228 4.1321L4.55905 3.78962Z" fill="#F7FCFF"/>
<path fill-rule="evenodd" clip-rule="evenodd" d="M7.05905 6.28962L6.50558 6.6321L6.72045 6.05716L6.25 5.6219H6.82062L7.05905 5L7.241 5.6219H7.8125L7.40063 6.05716L7.60228 6.6321L7.05905 6.28962Z" fill="#F7FCFF"/>
<path fill-rule="evenodd" clip-rule="evenodd" d="M4.55905 8.78962L4.00558 9.1321L4.22045 8.55716L3.75 8.1219H4.32062L4.55905 7.5L4.741 8.1219H5.3125L4.90063 8.55716L5.10228 9.1321L4.55905 8.78962Z" fill="#F7FCFF"/>
<path fill-rule="evenodd" clip-rule="evenodd" d="M15.5262 3.41431C12.9741 4.67503 4.58827 10.3406 4.58827 10.3406H18.5577C18.4182 10.3094 18.2881 10.2835 18.1653 10.2591C17.1398 10.0549 16.6336 9.9541 15.5262 7.74804C14.2863 5.27798 15.5262 3.41431 15.5262 3.41431ZM4.13481 11.2281L3.94379 11.703L4.13481 12.2249L18.3559 12.4999L18.75 11.775L18.3559 11.2532L4.13481 11.2281Z" fill="#FECA00"/>
</g>
</g>
</svg>

<svg width="20" height="15" fill="none" xmlns="http://www.w3.org/2000/svg">
  <mask id="a" maskUnits="userSpaceOnUse" x="0" y="0" width="20" height="15">
    <path fill="#fff" d="M0 0h20v15H0z"/>
  </mask>
  <g mask="url(#a)">
    <path fill-rule="evenodd" clip-rule="evenodd" d="M0 0v15h20V0H0z" fill="#2E42A5"/>
    <mask id="b" maskUnits="userSpaceOnUse" x="0" y="0" width="20" height="15">
      <path fill-rule="evenodd" clip-rule="evenodd" d="M0 0v15h20V0H0z" fill="#fff"/>
    </mask>
    <g mask="url(#b)" fill-rule="evenodd" clip-rule="evenodd">
      <path d="M2.059 6.29l-.553.342.214-.575-.47-.435h.57L2.06 5l.182.622h.571l-.411.435.201.575-.543-.342zm2.501-2.5l-.554.342.214-.575-.47-.435h.57l.24-.622.182.622h.572l-.412.435.201.575-.543-.342zm2.5 2.5l-.554.342.214-.575-.47-.435h.57L7.06 5l.182.622h.572l-.412.435.201.575-.543-.342zm-2.5 2.5l-.554.342.214-.575-.47-.435h.57l.24-.622.182.622h.572l-.412.435.201.575-.543-.342z" fill="#F7FCFF"/>
      <path d="M15.526 3.414c-2.552 1.261-10.938 6.927-10.938 6.927h13.97c-.14-.031-.27-.057-.393-.082-1.025-.204-1.531-.305-2.639-2.51-1.24-2.47 0-4.335 0-4.335zM4.135 11.228l-.191.475.19.522 14.222.275.394-.725-.394-.522-14.221-.025z" fill="#FECA00"/>
    </g>
  </g>
</svg>
